X:1
T:Lob sey Gott unserm Herren
T:Joachim a Burck
T:Source : Breitkopf & Hartel---Leipzig---R.Eitner---1898. First print : 20 Deutsche Liedlein zu 4 Stimmen---Erfurt---G.Baumann---1575. Editor : André Vierendeels (03/11/17). Notes : Original clefs : C1, C3, C3, F4 Editorial accidentals above the staff Text by Ludovoco Helmbold (Christeliche Reimen) 
T:Lob sey Gott unserm Herren
T:©
T:©
T:©
C:Joachim a Burck
Z:©
%%score [ 1 2 3 4 ]
L:1/8
Q:1/4=120
M:4/4
K:C
V:1 treble nm="Soprano" snm="S"
V:2 treble nm="Alto" snm="A"
V:3 treble-8 nm="Tenor" snm="T"
V:4 bass nm="Bass" snm="B"
V:1
"^1)" A4 A4 | A2 G4 G2 | F4 E4 | z2 A2 c2 A2 | B2 c2 d4 | B2 B2 c4 | B2 A4 G2 | A8 |[M:2/4] A4 |: %9
w: Lob sey|Gott un- serm|Her- ren,|Lob sey Gott|un- serm Her-|ren, durch ihn|steht noch in|Eh-|ren.|
w: Gott sen-|de noch zur|wirt- schaft|sein him- me-|li- sche Bot-|schaft, bis un-|ser Stand auf|Er-|den|
 z2 d2 |[M:4/4] c4 A2 _B2- | B2 A2 G4 | F2 A2 c2 A2 | B2 c2 d4 | c2 c2 c2 A2 | B2 c2 d4 | c4 A4 | %17
w: Der|Chri- sten eh-|* lich le-|ben, der Chri- sten|eh- lich le-|ben, er geb fer-|ner sein'n Se-|gen, er|
w: im|Him- mel eng-|* lisch wer-|de, im Him- mel|eng- lisch wer-|de, in Him- mel|eng- glisch wer-|de, in|
 A6 A2 | c4 B2 A2- |"^#""^#" A2 GF G4 | A8 :| %21
w: geb fer-|ner sein'n Se-||gen.|
w: Him- mel|eng- glisch wer-||de.|
V:2
"^2)""^1)" F4 E4 | F2 D4 C2 | D4 ^C4 | z2 E2 E2 F2 | G2 G2 A4 | G6 G2 | G2 F2 E2 D2 | E8 | %8
w: Lob sey|Gott un- serm|Her- ren,|Lob sey Gott|un- serm Her-|ren, durch|ihn steht noch in|Eh-|
w: Das wün-|schen al- le|Chri- sten.|Gott, der es|hat ver- hei-|szen, vol-|brings in Chri- sti|Na-|
[M:2/4]"^#" F4 |: z2 A2 |[M:4/4] A4 F2 G2 | G2 D3 C C2 | D2 E2 E2 F2 | G2 A2 GF G2 | A2 A2 A2 E2 | %15
w: ren.|Der|Chri- sten eh-|lich le- * *|ben, der Chri- sten|eh- lich le- * *|ben, er geb fer-|
w: men,|dass|wir ihm dan-|cken, A- * *|men, dass wir ihm|dan- cken, A- * *|men, dass wir ihm|
 G2 A2 GF G2 | A4 E4 | F4 F4 | G4 F4 | E8 | E8 :| %21
w: ner sein'n Se- * *|gen, er|geb fer-|ner sein'n|Se-|gen.|
w: dan- chen A- * *|men, dass|wir ihm|dan- cken|A-|men|
V:3
"^3)""^1)" d4 c4 | c2 _B4 G2 | A4 A4 |"^-natural" z2 c2 c2 c2 | d2 e2 f4 | d2 d2 e4 | %6
w: Lob sey|Gott un- serm|Her- ren,|Lob sey Gott|un- srm Her-|ren, duch ihn|
 d2 c2 c2 d2- |"^#""^-natural" d2 cB c4 |[M:2/4] d4 |: z2 f2 |[M:4/4] e4 c2 d2- | d2 d2 e4 | %12
w: steht noch in Eh-||ren.|Der|Chri- sten eh-|* lich le-|
 A2 c2 c2 c2 | d2 f2 d4 | e2 e2 f2 c2 | d2 A2 d4 | e4 z2 c2 | c4 d4 | e4 d4 | c2 BA B4 | A8 :| %21
w: ben, der Chri- sten|eh- lich le-|ben, er geb fer-|ner sein'n Se-|gen, er|geb fer-|ner sein'n|Se- * * *|gen.|
V:4
"^1)" D,4 A,4 | F,2 G,4 E,2 | D,4 A,,4 | z2 A,2 A,2 A,2 | G,2 E,2 D,4 | G,2 G,2 C4 | G,2 A,4 _B,2 | %7
w: Lob sey|Gott un- serm|Her- ren,|Lob sey Gott|un- serm Her-|ren, durch uhn|steht noch in|
 A,8 |[M:2/4] D,4 |: z2 D,2 |[M:4/4] A,4 A,2 G,2- | G,2 F,2 E,4 | D,2 A,2 A,2 A,2 | G,2 F,2 _B,4 | %14
w: Eh-|ren.|Der|Chri- sten eh-|* lich le-|ben, der Chri- sten|eh- lich le-|
 A,2 A,2 A,2 A,2 | G,2 F,2 _B,4 | A,6 A,2 | F,3 E, D,2 D,2 | C,4 D,4 | E,8 | A,,8 :| %21
w: ben, er geb fer-|ner sein'n Se-|gen, er|geb _ _ fer-|ner sein'n|Se-|gen.|

